packages/admin/admin-icons/icons/arrow-right.svg

<svg xmlns="http://www.w3.org/2000/svg" width="16" height="16" viewBox="0 0 16 16"><path fill="#242424" fill-rule="evenodd" d="M13.8535534,9.64644661 C14.0271197,9.82001296 14.0464049,10.0894374 13.9114088,10.2843055 L13.8535534,10.3535534 L10.8535534,13.3535534 C10.6582912,13.5488155 10.3417088,13.5488155 10.1464466,13.3535534 C9.97288026,13.179987 9.95359511,12.9105626 10.0885912,12.7156945 L10.1464466,12.6464466 L13.1464466,9.64644661 C13.3417088,9.45118446 13.6582912,9.45118446 13.8535534,9.64644661 Z M10.7843055,2.58859116 L10.8535534,2.64644661 L15.8535534,7.64644661 C16.147537,7.94043021 15.9728055,8.42918427 15.586032,8.49304488 L15.5,8.5 L0.5,8.5 C0.223857625,8.5 0,8.27614237 0,8 C0,7.75454011 0.176875161,7.55039163 0.410124368,7.50805567 L0.5,7.5 L14.293,7.5 L10.1464466,3.35355339 C9.97288026,3.17998704 9.95359511,2.91056264 10.0885912,2.7156945 L10.1464466,2.64644661 C10.320013,2.47288026 10.5894374,2.45359511 10.7843055,2.58859116 Z"/></svg>

<svg width="16" height="16" fill="none" viewBox="0 0 16 16">
  <path fill="#242424" d="M10.146 2.646a.5.5 0 0 1 .638-.057l.07.057 5 5a.5.5 0 0 1-.268.847l-.087.007H.5a.5.5 0 0 1-.09-.992L.5 7.5h13.794l-4.147-4.146a.5.5 0 0 1-.058-.638l.058-.07Zm3 7a.5.5 0 0 1 .765.638l-.058.07-3 3a.5.5 0 0 1-.765-.638l.058-.07 3-3Z"/>
</svg>
